app/dist/common/images/pyx-resources-limited.svg

<svg height="18" viewBox="0 0 18 18" width="18" xmlns="http://www.w3.org/2000/svg"><path d="m0 0h18v18h-18z" fill="#f0f3fa"/><g fill="#f15a25"><path d="m3 5h12v.5h-12zm0 7.5h12v.5h-12z"/><path d="m3.11 6h2.35c.25 0 .75.22.73 1.03-.02 1-.9 1.38-1.77 1.18v1.25c0 .08.16.26.44.28h.11v.26h-1.86v-.26h.27c.1 0 .32-.07.33-.28v-2.92c0-.09-.08-.27-.33-.29h-.28v-.25zm1.3.42c.36-.06 1.07-.02 1.08.66 0 .69-.71.77-1.07.73v-1.39z" fill-rule="evenodd"/><path d="m8.8 6h-1.8v.22c.29 0 .53.28.61.42l.98 1.67v1.13c0 .19-.2.28-.28.3h-.4v.26h2.04v-.26h-.35c-.2-.01-.31-.2-.33-.3v-1.18c.26-.48.85-1.5.98-1.72s.46-.3.6-.32v-.22h-1.32v.22c.4 0 .38.18.32.27l-.7 1.38-.69-1.33c-.14-.24.17-.31.34-.32zm4.4 0h-1.83v.22c.32 0 .55.23.62.34l.9 1.57-.95 1.33c-.2.27-.46.32-.57.3v.24h1.32v-.24h-.19c-.28 0-.23-.2-.17-.3l.72-1.01.51.94c.22.3-.03.38-.21.37v.24h1.65v-.24c-.27-.02-.48-.26-.56-.37l-.92-1.63.87-1.2c.22-.3.5-.35.61-.34v-.22h-1.32v.22c.38 0 .4.14.36.21l-.68 1.01-.5-.88c-.14-.28.17-.34.33-.34v-.22z"/></g><path d="m3 11h12v1h-12z" fill="#2d4d3c" fill-opacity=".6"/></svg>

<!-- by TradingView --><svg width="18" height="18" viewBox="0 0 18 18" xmlns="http://www.w3.org/2000/svg"><path fill="#F0F3FA" d="M0 0h18v18H0z"/><path fill="#F15A25" d="M3 5h12v.5H3zM3 12.5h12v.5H3z"/><path fill-rule="evenodd" d="M3.11 6h2.35c.25 0 .75.22.73 1.03-.02 1-.9 1.38-1.77 1.18v1.25c0 .08.16.26.44.28h.11V10H3.11v-.26h.27c.1 0 .32-.07.33-.28V6.54c0-.09-.08-.27-.33-.29H3.1V6Zm1.3.42c.36-.06 1.07-.02 1.08.66 0 .69-.71.77-1.07.73V6.42Z" fill="#F15A25"/><path d="M8.8 6H7v.22c.29 0 .53.28.61.42l.98 1.67v1.13c0 .19-.2.28-.28.3h-.4V10h2.04v-.26H9.6c-.2-.01-.31-.2-.33-.3V8.26c.26-.48.85-1.5.98-1.72.13-.22.46-.3.6-.32V6H9.53v.22c.4 0 .38.18.32.27l-.7 1.38-.69-1.33c-.14-.24.17-.31.34-.32V6ZM13.2 6h-1.83v.22c.32 0 .55.23.62.34l.9 1.57-.95 1.33c-.2.27-.46.32-.57.3V10h1.32v-.24h-.19c-.28 0-.23-.2-.17-.3l.72-1.01.51.94c.22.3-.03.38-.21.37V10H15v-.24c-.27-.02-.48-.26-.56-.37l-.92-1.63.87-1.2c.22-.3.5-.35.61-.34V6h-1.32v.22c.38 0 .4.14.36.21l-.68 1.01-.5-.88c-.14-.28.17-.34.33-.34V6Z" fill="#F15A25"/><path fill="#2D4D3C" fill-opacity=".6" d="M3 11h12v1H3z"/></svg>
